X: 1
T:mmandmm
C:nach dem Buch: "Alt-Egerlnder Tnze", E.Baumann
C:
M:3/4
L:1/4
K:C
G|c/G/d/G/ B/d/|e>fe/c/|d>ed/B/|c/d/e/c/G|\
c/G/d/G/ B/d/|e>fe/c/|A/d/d/B/ A/B/|cz:|
|:g|e2g|e2g|a/g/f/e/ f/e/|d2f|d2f|d2f|1e/g/g/e/ f/d/|\
ez:|2e/g/g/f/ e/d/|cz||
|:e|ffg/f/|fg/f/f|eeg/e/|eg/e/c/G/|dde/d/|df/e/f/a/|gg/e/f/d/|1ez:|2cz||
